icons/svg/icons8/shoe_man.svg

<svg width="26" height="26" viewBox="0 0 26 26" fill="none" xmlns="http://www.w3.org/2000/svg">
<path d="M1.08397 16.955C1.08397 16.955 0.149974 15.107 0.0779736 12.961C0.0389736 11.817 0.173974 10.233 0.772974 9.086C2.50997 8.845 4.38097 12.16 7.57697 10.665C8.61497 10.18 9.36797 9.511 9.89697 8.966C10.132 8.724 9.95897 7.464 10.112 7.298C10.484 6.894 10.885 7.188 10.885 7.188C10.885 7.188 15.914 11.572 18.361 12.795C20.806 14.019 25.897 13.133 25.897 17.864C25.897 18.528 25.791 18.88 18.226 18.88C12.961 18.88 12.016 18.957 9.91297 17.357C8.87897 16.57 7.96197 16.982 4.98297 16.931L1.08397 16.955Z" fill="#333333"/>
<path d="M6.9162 16.902H1.0332V18.957H6.9162V16.902Z" fill="#333333"/>
</svg>

<?xml version="1.0" encoding="utf-8"?>
<!-- Generator: Adobe Illustrator 15.0.0, SVG Export Plug-In . SVG Version: 6.00 Build 0)  -->
<!DOCTYPE svg PUBLIC "-//W3C//DTD SVG 1.1//EN" "http://www.w3.org/Graphics/SVG/1.1/DTD/svg11.dtd">
<svg version="1.1" id="Layer_1" xmlns="http://www.w3.org/2000/svg" xmlns:xlink="http://www.w3.org/1999/xlink" x="0px" y="0px"
	 width="26px" height="26px" viewBox="0 0 26 26" enable-background="new 0 0 26 26" xml:space="preserve">
<rect fill="none" width="26" height="26"/>
<path fill="#333333" d="M1.084,16.955c0,0-0.934-1.848-1.006-3.994c-0.039-1.144,0.096-2.728,0.695-3.875
	c1.737-0.241,3.608,3.074,6.804,1.579c1.038-0.485,1.791-1.154,2.32-1.699c0.235-0.242,0.062-1.502,0.215-1.668
	c0.372-0.404,0.773-0.11,0.773-0.11s5.029,4.384,7.476,5.607c2.445,1.224,7.536,0.338,7.536,5.069c0,0.664-0.106,1.016-7.671,1.016
	c-5.265,0-6.21,0.077-8.313-1.523c-1.034-0.787-1.951-0.375-4.93-0.426L1.084,16.955z"/>
<rect x="1.033" y="16.902" fill="#333333" width="5.883" height="2.055"/>
</svg>
